X:1
T:Title
%%score 1 { 2 | 3 }
L:1/8
Q:1/4=96
M:4/4
K:A
V:1 treble nm="Grand Piano, Soprano"
V:2 bass nm="Choir Pad, Jesus Our Blessèd Redeemr"
V:3 bass 
V:1
 [CE]2 [CA][CA] [CA][CA] [CA]2 | [CE][CE][DF][FA] [FA]>[FB] [EA]2- | [EA]2 [Ac]2 [EA][Ec] [Ee]2 | %3
w: By~Robert~Lowry * * * * *|||
 [Ec][CA] [Ec]2 [EB]4 | E2 [EA][EA] [EA][EA] [EA]2 | EE[DF][EG] [FA][FB] [^Ec]2- | %6
w: |||
 [Ec][^Ec] [Fd]2 [Ac][GB] [=EA]2 | [EG][EB] [EB]2 [EA]4 | [GB]2 [GB]2 [GB][Ac] [GB]2 | %9
w: |||
 [EG][GB][GB][FA] [FA][EG] [FA]2- | [FA][FA] [FA]2 [GB][Ac] [GB]2 | %11
w: ||
 [EG][GB][GB][FA] [EG][^DF] E2- | EE [Ec]2 [DB][Ec] [CA]2 | [CE]E [Ed]2 [Ec][Ed] [EB]2- | %14
w: |||
 [EB]2 [Ee]2 [Fd][FB] [EA]2 | [EG][EB] [EB]2 [EA]4- | [EA]4 z4 |] %17
w: |||
V:2
 A,2 E,E, E,E, E,2 | A,A,A,[K:treble]D D>D C2- | C2 E2 C[K:bass]A, C2 | A,A, A,2 G,4 | %4
 G,2 A,[K:treble]C CC C2 | A,[K:bass]A,A,B, A,F, G,2- | G,G, B,2[K:treble] ED C2 | B,D D2 C4 | %8
 E2 E2 EE E2 | B,B, B,2 B,B, B,2- | B,B, B,2 B,B, B,2 | B,EEB, B,A, G,2- | G,G, A,2 G,G, A,2 | %13
 A,A, B,2 A,B, G,2- | G,2 A,2 A,[K:treble]D C2 | B,D D2 C4- | C4 z4 |] %17
V:3
 A,,2 A,,A,, A,,A,, A,,2 | A,,A,,D,D, D,>D, A,,2- | A,,2 A,2 .A,2 A,2 | z2 E,2 E,4 | %4
 E,2 C,A,, C,E, A,2 | C,C,D,D, D,D, C,2- | C,C, B,,2 C,D, E,2 | E,E, A,,2 A,,4 | E,2 E,2 E,E, E,2 | %9
 E,E, B,,2 B,,B,, B,,2- | B,,B,, B,,2 B,,B,, E,2 | E,E, B,,2 B,,B,, E,2- | E,E, A,,2 E,E, A,,2 | %13
 A,,C, E,2 E,E, E,2- | E,2 C,2 D,D, E,2 | E,E, A,,2 A,,4- | A,,4 z4 |] %17

